build/documents/ArchiveOutline.svg

<svg xmlns="http://www.w3.org/2000/svg" fill="none" viewBox="0 0 24 24" focusable="false"><path d="M0 0H24V24H0z"/><path fill="#74767B" fill-rule="evenodd" d="M8.04763 3.70554C8.04763 3.34656 7.75661 3.05554 7.39763 3.05554L6.93652 3.05554C5.27967 3.05554 3.93652 4.39869 3.93652 6.05554L3.93652 18C3.93652 19.6569 5.27967 21 6.93652 21L17 21C18.6569 21 20 19.6569 20 18L20 9.15582C20 8.30494 19.6387 7.49408 19.006 6.92513L15.5584 3.82485C15.0077 3.32956 14.2932 3.05554 13.5524 3.05554L12.6183 3.05554C12.2593 3.05554 11.9683 3.34656 11.9683 3.70554C11.9683 4.06453 12.2593 4.35554 12.6183 4.35554L13.5524 4.35554C13.9722 4.35554 14.3771 4.51082 14.6892 4.79148L18.1367 7.89176C18.4953 8.21417 18.7 8.67365 18.7 9.15582L18.7 18C18.7 18.9389 17.9389 19.7 17 19.7L6.93652 19.7C5.99764 19.7 5.23652 18.9389 5.23652 18L5.23652 6.05554C5.23652 5.11666 5.99764 4.35554 6.93652 4.35554L7.39763 4.35554C7.75661 4.35554 8.04763 4.06453 8.04763 3.70554ZM7.89624 5.01621C7.89624 4.65723 8.18725 4.36621 8.54624 4.36621L9.46609 4.36621C9.82507 4.36621 10.1161 4.65723 10.1161 5.01621C10.1161 5.3752 9.82507 5.66621 9.46609 5.66621L8.54624 5.66621C8.18725 5.66621 7.89624 5.3752 7.89624 5.01621ZM8.54624 6.96625C8.18725 6.96625 7.89624 7.25726 7.89624 7.61625C7.89624 7.97523 8.18725 8.26625 8.54624 8.26625L9.46609 8.26625C9.82507 8.26625 10.1161 7.97523 10.1161 7.61625C10.1161 7.25726 9.82507 6.96625 9.46609 6.96625L8.54624 6.96625ZM7.89624 10.2162C7.89624 9.85724 8.18725 9.56622 8.54624 9.56622L9.46609 9.56622C9.82507 9.56622 10.1161 9.85724 10.1161 10.2162C10.1161 10.5752 9.82507 10.8662 9.46609 10.8662L8.54624 10.8662C8.18725 10.8662 7.89624 10.5752 7.89624 10.2162ZM9.44133 12.1663C9.1208 12.1663 8.84122 12.384 8.76267 12.6947L8.11651 15.2513C8.00474 15.6936 8.33903 16.1228 8.79517 16.1228L11.0695 16.1228C11.5256 16.1228 11.8599 15.6936 11.7481 15.2513L11.1019 12.6947C11.0234 12.384 10.7438 12.1663 10.4233 12.1663L9.44133 12.1663ZM9.74854 6.31626C9.74854 5.95727 10.0395 5.66626 10.3985 5.66626L11.3184 5.66626C11.6774 5.66626 11.9684 5.95727 11.9684 6.31626C11.9684 6.67524 11.6774 6.96626 11.3184 6.96626L10.3985 6.96626C10.0395 6.96626 9.74854 6.67524 9.74854 6.31626ZM10.3985 8.26624C10.0395 8.26624 9.74854 8.55725 9.74854 8.91623C9.74854 9.27522 10.0395 9.56624 10.3985 9.56624L11.3184 9.56624C11.6774 9.56624 11.9684 9.27522 11.9684 8.91623C11.9684 8.55725 11.6774 8.26624 11.3184 8.26624L10.3985 8.26624Z"/></svg>

<svg xmlns="http://www.w3.org/2000/svg" fill="none" viewBox="0 0 24 24" focusable="false"><path fill="#74767B" fill-rule="evenodd" d="M8.04 3.7c0-.36-.29-.65-.65-.65h-.46c-1.66 0-3 1.34-3 3V18c0 1.65 1.34 3 3 3H17c1.65 0 3-1.35 3-3V9.15c0-.85-.37-1.66-1-2.23l-3.45-3.1c-.55-.5-1.26-.77-2-.77h-.94c-.36 0-.65.29-.65.65s.29.65.65.65h.94c.42 0 .82.16 1.13.44l3.45 3.1c.36.32.57.78.57 1.26V18c0 .93-.77 1.7-1.7 1.7H6.93c-.94 0-1.7-.77-1.7-1.7V6.05c0-.94.76-1.7 1.7-1.7h.46c.36 0 .65-.29.65-.65m-.15 1.31c0-.36.29-.65.65-.65h.92c.36 0 .65.29.65.65s-.29.65-.65.65h-.92c-.36 0-.65-.29-.65-.65m.65 1.95c-.36 0-.65.29-.65.65s.29.65.65.65h.92c.36 0 .65-.29.65-.65s-.29-.65-.65-.65zm-.65 3.25c0-.36.29-.65.65-.65h.92c.36 0 .65.29.65.65s-.29.65-.65.65h-.92c-.36 0-.65-.29-.65-.65m1.55 1.95c-.32 0-.6.22-.68.53l-.65 2.56a.7.7 0 0 0 .68.87h2.27a.7.7 0 0 0 .68-.87l-.64-2.56a.705.705 0 0 0-.68-.53zm.3-5.85c0-.36.29-.65.65-.65h.92c.36 0 .65.29.65.65s-.29.65-.65.65h-.92c-.36 0-.65-.29-.65-.65m.65 1.95c-.36 0-.65.29-.65.65s.29.65.65.65h.92c.36 0 .65-.29.65-.65s-.29-.65-.65-.65z"/></svg>
